dist/img/icons/plus.svg

<svg width="15" height="15" viewBox="0 0 15 15" fill="none" xmlns="http://www.w3.org/2000/svg">
<path d="M13.9944 3.73528C13.3237 2.58627 12.4139 1.67652 11.2649 1.00586C10.1156 0.335243 8.86107 0 7.50022 0C6.13952 0 4.88457 0.335243 3.73552 1.00586C2.58641 1.67642 1.67666 2.58617 1.00597 3.73528C0.335243 4.88447 0 6.13941 0 7.50002C0 8.86069 0.335345 10.1154 1.00586 11.2647C1.67652 12.4137 2.58627 13.3234 3.73539 13.9942C4.88457 14.6648 6.13941 15 7.50009 15C8.86076 15 10.1157 14.6648 11.2649 13.9942C12.4139 13.3237 13.3236 12.4137 13.9942 11.2647C14.6648 10.1155 15 8.86062 15 7.50002C15 6.13928 14.6648 4.8843 13.9944 3.73528ZM11.8752 8.12501C11.8752 8.29426 11.8133 8.44093 11.6896 8.56444C11.5658 8.68806 11.4193 8.75011 11.2501 8.75011H8.75007V11.2499C8.75007 11.4192 8.68806 11.5657 8.56441 11.6896C8.44082 11.8132 8.29429 11.875 8.12498 11.875H6.87502C6.70578 11.875 6.55928 11.8132 6.43559 11.6896C6.31187 11.5658 6.25 11.4192 6.25 11.2499V8.75011H3.74999C3.58075 8.75011 3.43431 8.68809 3.31056 8.56444C3.18688 8.44096 3.12503 8.29429 3.12503 8.12501V6.87492C3.12503 6.70568 3.18691 6.55918 3.31056 6.43549C3.43428 6.31177 3.58071 6.24989 3.74999 6.24989H6.2501V3.74989C6.2501 3.58061 6.31198 3.43421 6.4357 3.31046C6.55938 3.18677 6.70585 3.12493 6.87513 3.12493H8.12522C8.29446 3.12493 8.44103 3.18681 8.56465 3.31046C8.68826 3.43418 8.75031 3.58061 8.75031 3.74989V6.24989H11.2501C11.4194 6.24989 11.5659 6.31177 11.6896 6.43549C11.8133 6.55914 11.8752 6.70564 11.8752 6.87492V8.12501Z" fill="#7E20C8"/>
</svg>

<svg width="15" height="15" viewBox="0 0 15 15" fill="none" xmlns="http://www.w3.org/2000/svg"><path d="M13.994 3.735a7.469 7.469 0 0 0-2.73-2.73A7.337 7.337 0 0 0 7.5 0C6.14 0 4.885.335 3.736 1.006a7.467 7.467 0 0 0-2.73 2.73A7.336 7.336 0 0 0 0 7.5c0 1.36.335 2.615 1.006 3.765a7.47 7.47 0 0 0 2.73 2.73A7.337 7.337 0 0 0 7.5 15c1.36 0 2.616-.335 3.765-1.006a7.467 7.467 0 0 0 2.73-2.73A7.337 7.337 0 0 0 15 7.5c0-1.36-.335-2.616-1.006-3.765zm-2.119 4.39a.6.6 0 0 1-.185.44.601.601 0 0 1-.44.185h-2.5v2.5c0 .17-.062.316-.186.44a.6.6 0 0 1-.439.185h-1.25a.6.6 0 0 1-.44-.185.601.601 0 0 1-.185-.44v-2.5h-2.5a.601.601 0 0 1-.44-.186.6.6 0 0 1-.185-.439v-1.25a.6.6 0 0 1 .186-.44.6.6 0 0 1 .439-.185h2.5v-2.5a.6.6 0 0 1 .186-.44.6.6 0 0 1 .44-.185h1.25a.6.6 0 0 1 .439.185c.123.124.185.27.185.44v2.5h2.5a.6.6 0 0 1 .44.185.6.6 0 0 1 .185.44v1.25z" fill="#7E20C8"/></svg>
